X: 531
T:Zborenka
O:Bulgaria
L:1/8
M:2/4
Q:1/4=160
K: AMix
%%MIDI gchord fzfz
|: "A"G2AB      |B2BG         |B2BG     |B2BG       |\
   cded         |c2Bc         |A2B2     |A4         :|
|: A2e2         |edcd         |edcd     |c4         |cded|\
   c2Bc         |A2B2         |A4       :|
|: cde2         |e2fg         |f4       |edc2       |cde2|\
   e2fg         |f4           |e4       :|
Q:1/4=180
K:F
%%MIDI gchord fzfz
|: "F"C2 c2     | C2c2        | cBAG    | A2 GF     |\
   C2 c2        | cBAG        | AF "C"G2| "F"F2 z2  :|
|: "F"A2 F2     | "C"G2 "F"FG | A2 "C"G2| "F"FGAB   |\
   A2 F2        | "C"G2 "F"FG | A2 "C"G2| "F"F2 z2  :|
|: "F"C2 "Dm" DE| "F"F3 G     | AF "C"G2| "F"F2 z G |\
   "F"AF "C"G2  | "F"FE "Dm"D2| D2 D2   | D2 "F"z2  :|
|: "F"C2 "Dm"DE | "F"F3 G     | AF "C"G2| "F"F2 z G |\
   AF "C"G2     | "F"FE "Dm"D2| D2 D2   | D2 "F"z2  :|



